X:89
T:Hop, Skip and Jump Reel
R:reel
C:Bruce Osborne - Sept. 2002
Z:abc by bosborne@kos.net
M:2/4
L:1/8
K:Cmaj
G/F/|E/C/B,/C/ E/G/c/e/|d/c/B/d/ ce/f/|g/c/B/c/ G/c/B/c/|d/c/B/A/ GG/F/|\
E/C/B,/C/ E/G/c/e/|d/c/B/d/ ce/f/|g/c/B/c/ G/c/B/c/|d/c/e/d/ c:|
|:g/f/|e/c/B/c/ G/c/B/c/|G/c/e/a/ gd/e/|f/d/B/d/ G/d/B/d/|c/B/c/d/ eg/f/|\
e/c/B/c/ G/c/B/c/|G/c/e/a/ gd/e/|f/d/B/d/ G/d/B/d/|c/B/e/d/ c:|
